images/client/Union1.svg

<svg width="41" height="47" viewBox="0 0 41 47" fill="none" xmlns="http://www.w3.org/2000/svg">
<path fill-rule="evenodd" clip-rule="evenodd" d="M6 0L13.0078 6.63413L0 6.62646V38.8137H34V26.507L41 33.1338V0H6ZM33.6924 25.7283L13.8226 6.91796H33.6924V25.7283ZM27.5231 34.1055H5.38008V12.4579H6.9453V32.6397H27.5231V34.1055ZM9.7959 44.7959L8.9707 43.0991H8.28955L9.48584 45.3452V46.6538H10.1035V45.3452L11.2998 43.0991H10.6211L9.7959 44.7959ZM12.8379 43.0991H12.9844L14.3271 46.6538H13.6826L13.395 45.8213H12.0189L11.7319 46.6538H11.0898L12.4277 43.0991H12.5718H12.8379ZM12.1864 45.3354H13.2271L12.7062 43.8274L12.1864 45.3354ZM16.4821 44.7465C16.4553 44.7124 16.4295 44.6792 16.4048 44.647C16.3136 44.5265 16.2428 44.4102 16.1924 44.2979C16.1419 44.1839 16.1167 44.0667 16.1167 43.9463C16.1167 43.7607 16.1549 43.6012 16.2314 43.4678C16.3079 43.3343 16.4162 43.2318 16.5562 43.1602C16.6961 43.0869 16.8597 43.0503 17.0469 43.0503C17.2275 43.0503 17.383 43.0869 17.5132 43.1602C17.645 43.2318 17.7459 43.327 17.8159 43.4458C17.8875 43.5646 17.9233 43.6948 17.9233 43.8364C17.9233 43.9487 17.903 44.0513 17.8623 44.144C17.8216 44.2368 17.7655 44.3215 17.6938 44.3979C17.6222 44.4744 17.5392 44.5469 17.4448 44.6152L17.1979 44.7949L17.9018 45.6257C17.925 45.58 17.946 45.5321 17.9648 45.4819C18.0251 45.3257 18.0552 45.1523 18.0552 44.9619H18.563C18.563 45.1344 18.5459 45.298 18.5117 45.4526C18.4792 45.6073 18.4263 45.7505 18.353 45.8823C18.3233 45.937 18.2897 45.9893 18.2522 46.0392L18.7729 46.6538H18.0918L17.8852 46.4108C17.7734 46.4957 17.6518 46.562 17.5205 46.6099C17.348 46.6717 17.1641 46.7026 16.9688 46.7026C16.7327 46.7026 16.5285 46.6595 16.356 46.5732C16.1834 46.487 16.05 46.3682 15.9556 46.2168C15.8628 46.0654 15.8164 45.8921 15.8164 45.6968C15.8164 45.5519 15.8465 45.425 15.9067 45.3159C15.967 45.2052 16.0492 45.1027 16.1533 45.0083C16.2495 44.921 16.3591 44.8338 16.4821 44.7465ZM16.7738 45.1036L16.7002 45.1572C16.6139 45.2272 16.5496 45.2948 16.5073 45.3599C16.4666 45.4233 16.4398 45.4819 16.4268 45.5356C16.4137 45.5894 16.4072 45.6366 16.4072 45.6772C16.4072 45.7814 16.4292 45.8758 16.4731 45.9604C16.5187 46.0451 16.5846 46.1126 16.6709 46.1631C16.7588 46.2119 16.8654 46.2363 16.9907 46.2363C17.1258 46.2363 17.2568 46.2062 17.3838 46.146C17.4474 46.115 17.5078 46.0777 17.5648 46.034L16.7738 45.1036ZM16.9143 44.4544L17.1323 44.3076C17.2349 44.2393 17.3081 44.1725 17.3521 44.1074C17.396 44.0407 17.418 43.9577 17.418 43.8584C17.418 43.7738 17.3854 43.6956 17.3203 43.624C17.2552 43.5524 17.1632 43.5166 17.0444 43.5166C16.9614 43.5166 16.8914 43.5361 16.8345 43.5752C16.7775 43.6126 16.7344 43.6631 16.7051 43.7266C16.6774 43.7884 16.6636 43.8576 16.6636 43.9341C16.6636 44.0073 16.6823 44.083 16.7197 44.1611C16.7572 44.2376 16.8084 44.3182 16.8735 44.4028C16.8868 44.4197 16.9004 44.4369 16.9143 44.4544ZM23.1333 45.4966H22.5229C22.505 45.6512 22.4676 45.7822 22.4106 45.8896C22.3553 45.9954 22.2731 46.076 22.1641 46.1313C22.0566 46.1867 21.9159 46.2144 21.7417 46.2144C21.5985 46.2144 21.4756 46.1859 21.373 46.1289C21.2705 46.0719 21.1859 45.9914 21.1191 45.8872C21.054 45.783 21.0052 45.6585 20.9727 45.5137C20.9417 45.3672 20.9263 45.2044 20.9263 45.0254V44.7251C20.9263 44.5363 20.9434 44.3687 20.9775 44.2222C21.0133 44.0741 21.0662 43.9495 21.1362 43.8486C21.2062 43.7477 21.2933 43.6712 21.3975 43.6191C21.5016 43.5671 21.6237 43.541 21.7637 43.541C21.9346 43.541 22.0729 43.5703 22.1787 43.6289C22.2845 43.6859 22.3643 43.7689 22.418 43.8779C22.4733 43.987 22.5091 44.118 22.5254 44.271H23.1357C23.1113 44.0334 23.0446 43.8226 22.9355 43.6387C22.8281 43.4548 22.6768 43.3107 22.4814 43.2065C22.2861 43.1024 22.0469 43.0503 21.7637 43.0503C21.5407 43.0503 21.3397 43.0894 21.1606 43.1675C20.9832 43.2456 20.8311 43.3587 20.7041 43.5068C20.5771 43.6533 20.4795 43.8299 20.4111 44.0366C20.3444 44.2433 20.311 44.4744 20.311 44.73V45.0254C20.311 45.2809 20.3436 45.512 20.4087 45.7188C20.4754 45.9255 20.5715 46.1021 20.6968 46.2485C20.8221 46.3934 20.9727 46.5057 21.1484 46.5854C21.3242 46.6636 21.522 46.7026 21.7417 46.7026C22.0282 46.7026 22.2715 46.6506 22.4717 46.5464C22.6719 46.4422 22.8273 46.2998 22.938 46.1191C23.0487 45.9368 23.1138 45.7293 23.1333 45.4966ZM26.5244 44.9741V44.7788C26.5244 44.5103 26.4886 44.2702 26.417 44.0586C26.347 43.8454 26.2469 43.6639 26.1167 43.5142C25.9865 43.3628 25.8311 43.248 25.6504 43.1699C25.4697 43.0902 25.2695 43.0503 25.0498 43.0503C24.8317 43.0503 24.6323 43.0902 24.4517 43.1699C24.2726 43.248 24.1172 43.3628 23.9854 43.5142C23.8551 43.6639 23.7542 43.8454 23.6826 44.0586C23.611 44.2702 23.5752 44.5103 23.5752 44.7788V44.9741C23.5752 45.2427 23.611 45.4836 23.6826 45.6968C23.7559 45.91 23.8584 46.0915 23.9902 46.2412C24.1221 46.3909 24.2775 46.5057 24.4565 46.5854C24.6372 46.6636 24.8366 46.7026 25.0547 46.7026C25.2744 46.7026 25.4746 46.6636 25.6553 46.5854C25.8359 46.5057 25.9906 46.3909 26.1191 46.2412C26.2493 46.0915 26.3494 45.91 26.4194 45.6968C26.4894 45.4836 26.5244 45.2427 26.5244 44.9741ZM25.9116 44.7739V44.9741C25.9116 45.1727 25.8921 45.3485 25.853 45.5015C25.8156 45.6545 25.7603 45.7839 25.687 45.8896C25.6138 45.9938 25.5243 46.0728 25.4185 46.1265C25.3127 46.1785 25.1914 46.2046 25.0547 46.2046C24.9196 46.2046 24.7992 46.1785 24.6934 46.1265C24.5876 46.0728 24.4964 45.9938 24.4199 45.8896C24.3451 45.7839 24.2881 45.6545 24.249 45.5015C24.21 45.3485 24.1904 45.1727 24.1904 44.9741V44.7739C24.1904 44.5754 24.21 44.4004 24.249 44.249C24.2881 44.096 24.3442 43.9683 24.4175 43.8657C24.4923 43.7616 24.5827 43.6834 24.6885 43.6313C24.7943 43.5776 24.9147 43.5508 25.0498 43.5508C25.1849 43.5508 25.3062 43.5776 25.4136 43.6313C25.521 43.6834 25.6113 43.7616 25.6846 43.8657C25.7594 43.9683 25.8156 44.096 25.853 44.249C25.8921 44.4004 25.9116 44.5754 25.9116 44.7739Z" fill="#AFB1B8"/>
</svg>

<svg width="41" height="47" fill="none" xmlns="http://www.w3.org/2000/svg"><path fill-rule="evenodd" clip-rule="evenodd" d="m6 0 7.008 6.634L0 6.626v32.188h34V26.507l7 6.627V0H6Zm27.692 25.728-19.87-18.81h19.87v18.81Zm-6.169 8.377H5.38V12.459h1.565V32.64h20.578v1.465ZM9.796 44.795 8.97 43.1H8.29l1.196 2.246v1.309h.617v-1.309L11.3 43.1h-.679l-.825 1.697Zm3.042-1.696h.146l1.343 3.555h-.644l-.288-.833h-1.376l-.287.833h-.642l1.338-3.555H12.838Zm-.652 2.236h1.041l-.52-1.508-.52 1.508Zm4.296-.589a10.738 10.738 0 0 1-.077-.099 1.82 1.82 0 0 1-.213-.35.86.86 0 0 1-.075-.35c0-.186.038-.346.114-.48a.77.77 0 0 1 .325-.307c.14-.073.304-.11.49-.11.181 0 .337.037.467.11a.766.766 0 0 1 .35.984.893.893 0 0 1-.17.254 1.723 1.723 0 0 1-.248.217l-.247.18.704.83a1.409 1.409 0 0 0 .153-.663h.508c0 .172-.017.336-.051.49a1.522 1.522 0 0 1-.26.587l.52.615h-.68l-.207-.243a1.384 1.384 0 0 1-.365.199 1.624 1.624 0 0 1-.551.093c-.236 0-.44-.044-.613-.13a.97.97 0 0 1-.4-.356.975.975 0 0 1-.14-.52c0-.145.03-.272.09-.381.061-.11.143-.213.247-.308.097-.087.206-.174.33-.262Zm.292.358-.074.053a.914.914 0 0 0-.193.203.59.59 0 0 0-.034.6.514.514 0 0 0 .198.203.65.65 0 0 0 .32.073c.135 0 .266-.03.393-.09a1.06 1.06 0 0 0 .18-.112l-.79-.93Zm.14-.65.218-.146a.791.791 0 0 0 .22-.2.444.444 0 0 0 .066-.25.354.354 0 0 0-.374-.342.362.362 0 0 0-.339.21.502.502 0 0 0 .015.435 1.444 1.444 0 0 0 .194.293Zm6.22 1.043h-.611a1.106 1.106 0 0 1-.112.393.553.553 0 0 1-.247.241.923.923 0 0 1-.422.083.748.748 0 0 1-.369-.085.707.707 0 0 1-.254-.242 1.193 1.193 0 0 1-.146-.373 2.365 2.365 0 0 1-.047-.489v-.3c0-.189.017-.356.052-.503.035-.148.088-.273.158-.373.07-.101.157-.178.262-.23a.81.81 0 0 1 .366-.078c.17 0 .309.03.415.088.106.057.185.14.239.249.055.109.091.24.107.393h.61a1.53 1.53 0 0 0-.2-.632 1.129 1.129 0 0 0-.454-.433 1.51 1.51 0 0 0-.717-.156c-.223 0-.424.04-.603.117-.178.079-.33.192-.457.34a1.533 1.533 0 0 0-.293.53c-.067.206-.1.437-.1.693v.295c0 .256.033.487.098.694.066.206.163.383.288.53a1.3 1.3 0 0 0 .451.336c.176.079.374.118.594.118.286 0 .53-.052.73-.157.2-.104.355-.246.466-.427.11-.182.176-.39.195-.622Zm3.39-.523v-.195c0-.269-.035-.509-.107-.72a1.56 1.56 0 0 0-.3-.545 1.276 1.276 0 0 0-.467-.344c-.18-.08-.38-.12-.6-.12-.218 0-.418.04-.598.12-.18.078-.335.193-.467.344-.13.15-.23.331-.302.545a2.241 2.241 0 0 0-.108.72v.195c0 .269.036.51.108.723a1.6 1.6 0 0 0 .307.544 1.344 1.344 0 0 0 1.065.462c.22 0 .42-.04.6-.118.18-.08.336-.194.464-.344.13-.15.23-.331.3-.544.07-.213.105-.454.105-.723Zm-.612-.2v.2c0 .199-.02.375-.059.528a1.157 1.157 0 0 1-.166.388.73.73 0 0 1-.268.236.815.815 0 0 1-.364.079.809.809 0 0 1-.362-.078.771.771 0 0 1-.273-.237 1.165 1.165 0 0 1-.171-.389 2.144 2.144 0 0 1-.059-.527v-.2c0-.199.02-.374.059-.525.04-.153.095-.28.169-.383a.729.729 0 0 1 .27-.235.787.787 0 0 1 .362-.08c.135 0 .256.027.364.08.107.052.197.13.27.235.075.102.132.23.169.383.04.151.059.326.059.525Z" fill="#AFB1B8"/></svg>
